!!!!SEGMENT: pl-sa--381--a-viii-21--011_anonim--chwalle-panu-wdziecznym-pieniem.krn
!!!cenid: 18xx:1317
!!!COM: Anonim
!!!COM-rismID: pe30004985
!!!CDT:
!!!CNT:
!!!OTL: Chwałę Panu wdzięcznym pieniem
!!!PDT:
!!!AGN: Sacred
!!!SMS-siglum: PL-SA
!!!SMS-shelfmark: 381/ A VIII 21
!!!SMS-shelfwork: 006 W
!!!SMS-variant:
!!!SMS-altvar:
!!!NIFC-rismSourceID: 1001106438
!!!NIFC-islandoraID:
!!!URL-pdf-islandora:
!!!URL-scan: https://bc.bdsandomierz.pl/dlibra/publication/1685/edition/1653/content @EN{Scan in the Sandomierz Diocese Digital Library} @PL{Skany w portalu Cyfrowa Biblioteka Diecezjalna w Sandomierzu}
!!!ONB-nifc: UWAGA: str. 13. Utwory w zbiorze: 1. Kyrie, 2. Gloria, 3. Credo, 4. Przyjmij Boże tę ofiarę, 5. Sanctus, 6. Aniele stróżu duszy, 7. Agnus Dei, 8. Dona nobis, 9. Boże cesarza chroń, 10. Ciebie Boże wychwalamy, 11. Chwałę Panu wdzięcznym pieniem
!!!AIN: 1 soprn
!!!key: G
!!!OMD: Allegro moderato
**kern	**text	**text
*part1	*part1	*part1
*staff1	*staff1	*staff1
*ICvox	*	*
*Isoprn	*	*
*I"	*	*
*clefG2	*	*
*k[f#]	*	*
*G:	*	*
*M42/2	*	*
*met(c|)	*	*
=1	=1	=1
2d/	Chwa-	Przed-
2f#/	-łę	-nim
=2	=2	=2
2a/	pa-	ko[[ło]]-
2f#/	-nu	-ło
=3	=3	=3
2a/	wdzię-	czas
2b/	-cznem	za-
=4	=4	=4
!LO:TX:t=P:problem=zapis poprawiany	!	!
4.cc\	pie-	-trzy-
8b\	.	.
2a;/	-niem	-ma
=5	=5	=5
2b/	Lu-	pa-
4cc/	-dy	-dną
4b/	a-	te
=6	=6	=6
2a#X/	-nio-	świa-
4b/	-ły	-ty
4b/	roz-	i
!!LO:LB:g=original
=7	=7	=7
(>2a/	-nie-	słoń-
2f#/)	.	.
=8	=8	=8
2g/	-ście	-ca
2r	.	.
=9	=9	=9
!LO:TX:a:t=4.	!	!
1r	.	.
=10	=10	=10
2ee\	O-	Je-
2cc\	-ży-	-mu
=11	=11	=11
(4.b/	-wie-	tyl-
8a/)	.	.
2g/	-ni	-ko
=12	=12	=12
(4e/	Je-	gra-
4b\	.	.
4a/)	.	.
4g/	-go	-nic
=13	=13	=13
2g/	tchnie-	nie
2f#/	-niem	ma
!!LO:LB:g=original
=14	=14	=14
(4g\	in-	Je-
4dd\)	-ni-	.
4cc\	-mi	-go
4b\	dla	jest
=15	=15	=15
((4a/	Nie-	wiecz-
4cc/)	.	.
4b/)	.	.
4a/	-go	-ność
=16	=16	=16
2g/	je-	bez
2f#/	-ste-	koń-
=17	=17	=17
2g/	-ście	-ca
2r	.	.
==	==	==
*-	*-	*-
!!!system-decoration: s1
!!!RDF**kern: > = above
!!!ENC: Andrzej Gręziak
!!!END: 2020-12-08
!!!ENC: Marta Lawrence
!!!END: 2022-01-07
